assets/assets/product/shop-viewer-icon.svg

<?xml version="1.0" encoding="UTF-8"?>
<svg width="41px" height="44px" viewBox="0 0 41 44" version="1.1" xmlns="http://www.w3.org/2000/svg" xmlns:xlink="http://www.w3.org/1999/xlink">
    <!-- Generator: Sketch 49 (51002) - http://www.bohemiancoding.com/sketch -->
    <title>shop-viewer-icon</title>
    <desc>Created with Sketch.</desc>
    <defs></defs>
    <g id="Page-1" stroke="none" stroke-width="1" fill="none" fill-rule="evenodd">
        <g id="shop-viewer-icon" fill="#238DC1">
            <path d="M14.1678,5.72197921 L16.1568,5.72197921 L16.1568,3.92572141 L14.1678,3.92572141 L14.1678,5.72197921 Z M24.1182,5.72197921 L26.1072,5.72197921 L26.1072,3.92572141 L24.1182,3.92572141 L24.1182,5.72197921 Z M10.1862,1.79715593 C9.585,1.79715593 9.0972,2.27316424 9.0972,2.86054054 L9.0972,6.78716008 C9.0972,7.37453638 9.585,7.85234096 10.1862,7.85234096 C10.7874,7.85234096 11.277,7.37453638 11.277,6.78716008 L11.277,2.86054054 C11.277,2.27316424 10.7874,1.79715593 10.1862,1.79715593 Z M10.1862,9.64859875 C8.5914,9.64859875 7.2972,8.36427443 7.2972,6.78716008 L7.2972,2.86054054 C7.2972,1.2834262 8.5914,0.000898128898 10.1862,0.000898128898 C11.781,0.000898128898 13.077,1.2834262 13.077,2.86054054 L13.077,6.78716008 C13.077,8.36427443 11.781,9.64859875 10.1862,9.64859875 Z M20.1384,1.79715593 C19.5372,1.79715593 19.0476,2.27316424 19.0476,2.86054054 L19.0476,6.78716008 C19.0476,7.37453638 19.5372,7.85234096 20.1384,7.85234096 C20.7378,7.85234096 21.2274,7.37453638 21.2274,6.78716008 L21.2274,2.86054054 C21.2274,2.27316424 20.7378,1.79715593 20.1384,1.79715593 Z M20.1384,9.64859875 C18.5436,9.64859875 17.2476,8.36427443 17.2476,6.78716008 L17.2476,2.86054054 C17.2476,1.2834262 18.5436,0.000898128898 20.1384,0.000898128898 C21.7314,0.000898128898 23.0274,1.2834262 23.0274,2.86054054 L23.0274,6.78716008 C23.0274,8.36427443 21.7314,9.64859875 20.1384,9.64859875 Z M30.087,1.79715593 C29.4858,1.79715593 28.9962,2.27316424 28.9962,2.86054054 L28.9962,6.78716008 C28.9962,7.37453638 29.4858,7.85234096 30.087,7.85234096 C30.6882,7.85234096 31.176,7.37453638 31.176,6.78716008 L31.176,2.86054054 C31.176,2.27316424 30.6882,1.79715593 30.087,1.79715593 Z M30.087,9.64859875 C28.4922,9.64859875 27.1962,8.36427443 27.1962,6.78716008 L27.1962,2.86054054 C27.1962,1.2834262 28.4922,0.000898128898 30.087,0.000898128898 C31.6818,0.000898128898 32.976,1.2834262 32.976,2.86054054 L32.976,6.78716008 C32.976,8.36427443 31.6818,9.64859875 30.087,9.64859875 Z M37.629,43.6715177 L2.889,43.6715177 C1.296,43.6715177 0,42.3871933 0,40.810079 L0,6.78716008 C0,5.21004574 1.296,3.92572141 2.889,3.92572141 L6.2064,3.92572141 L6.2064,5.72197921 L2.889,5.72197921 C2.2878,5.72197921 1.8,6.19978378 1.8,6.78716008 L1.8,40.810079 C1.8,41.3974553 2.2878,41.8752599 2.889,41.8752599 L37.629,41.8752599 C38.2302,41.8752599 38.7198,41.3974553 38.7198,40.810079 L38.7198,6.78716008 C38.7198,6.19978378 38.2302,5.72197921 37.629,5.72197921 L34.3116,5.72197921 L34.3116,3.92572141 L37.629,3.92572141 C39.2238,3.92572141 40.5198,5.21004574 40.5198,6.78716008 L40.5198,40.810079 C40.5198,42.3871933 39.2238,43.6715177 37.629,43.6715177 Z" id="Fill-1"></path>
            <path d="M32.3512,16.7962578 L7.9,16.7962578 C7.4032,16.7962578 7,16.393896 7,15.8981289 C7,15.4023617 7.4032,15 7.9,15 L32.3512,15 C32.848,15 33.2512,15.4023617 33.2512,15.8981289 C33.2512,16.393896 32.848,16.7962578 32.3512,16.7962578" id="Fill-3"></path>
            <path d="M32.3512,25.7962578 L7.9,25.7962578 C7.4032,25.7962578 7,25.393896 7,24.8981289 C7,24.4023617 7.4032,24 7.9,24 L32.3512,24 C32.848,24 33.2512,24.4023617 33.2512,24.8981289 C33.2512,25.393896 32.848,25.7962578 32.3512,25.7962578" id="Fill-3-Copy"></path>
            <path d="M32.3512,34.7962578 L7.9,34.7962578 C7.4032,34.7962578 7,34.393896 7,33.8981289 C7,33.4023617 7.4032,33 7.9,33 L32.3512,33 C32.848,33 33.2512,33.4023617 33.2512,33.8981289 C33.2512,34.393896 32.848,34.7962578 32.3512,34.7962578" id="Fill-3-Copy-2"></path>
        </g>
    </g>
</svg>

<?xml version="1.0" encoding="utf-8"?>
<!-- Generator: Adobe Illustrator 22.0.1, SVG Export Plug-In . SVG Version: 6.00 Build 0)  -->
<svg version="1.1" id="Layer_1" xmlns="http://www.w3.org/2000/svg" xmlns:xlink="http://www.w3.org/1999/xlink" x="0px" y="0px"
	 viewBox="0 0 41 44" style="enable-background:new 0 0 41 44;" xml:space="preserve">
<style type="text/css">
	.st0{fill:#238DC1;}
</style>
<title>shop-viewer-icon</title>
<desc>Created with Sketch.</desc>
<g id="Page-1">
	<g id="PRODUCT-SECTIONS" transform="translate(-1020.000000, -610.000000)">
		<g id="SURVEY" transform="translate(830.000000, 610.000000)">
			<g id="ICON" transform="translate(1.000000, 0.000000)">
				<g id="shop-viewer-icon" transform="translate(189.200000, 0.000000)">
					<path id="Fill-1" class="st0" d="M14.2,5.7h2V3.9h-2V5.7z M24.1,5.7h2V3.9h-2V5.7z M10.2,1.8c-0.6,0-1.1,0.5-1.1,1.1v3.9
						c0,0.6,0.5,1.1,1.1,1.1s1.1-0.5,1.1-1.1V2.9C11.3,2.3,10.8,1.8,10.2,1.8z M10.2,9.6c-1.6,0-2.9-1.3-2.9-2.9V2.9
						C7.3,1.3,8.6,0,10.2,0s2.9,1.3,2.9,2.9v3.9C13.1,8.4,11.8,9.6,10.2,9.6z M20.1,1.8c-0.6,0-1.1,0.5-1.1,1.1v3.9
						c0,0.6,0.5,1.1,1.1,1.1c0.6,0,1.1-0.5,1.1-1.1V2.9C21.2,2.3,20.7,1.8,20.1,1.8z M20.1,9.6c-1.6,0-2.9-1.3-2.9-2.9V2.9
						c0-1.6,1.3-2.9,2.9-2.9C21.7,0,23,1.3,23,2.9v3.9C23,8.4,21.7,9.6,20.1,9.6z M30.1,1.8c-0.6,0-1.1,0.5-1.1,1.1v3.9
						c0,0.6,0.5,1.1,1.1,1.1s1.1-0.5,1.1-1.1V2.9C31.2,2.3,30.7,1.8,30.1,1.8z M30.1,9.6c-1.6,0-2.9-1.3-2.9-2.9V2.9
						c0-1.6,1.3-2.9,2.9-2.9C31.7,0,33,1.3,33,2.9v3.9C33,8.4,31.7,9.6,30.1,9.6z M37.6,43.7H2.9c-1.6,0-2.9-1.3-2.9-2.9v-34
						c0-1.6,1.3-2.9,2.9-2.9h3.3v1.8H2.9c-0.6,0-1.1,0.5-1.1,1.1v34c0,0.6,0.5,1.1,1.1,1.1h34.7c0.6,0,1.1-0.5,1.1-1.1v-34
						c0-0.6-0.5-1.1-1.1-1.1h-3.3V3.9h3.3c1.6,0,2.9,1.3,2.9,2.9v34C40.5,42.4,39.2,43.7,37.6,43.7z"/>
					<path id="Fill-3" class="st0" d="M32.6,16.5H8.2c-0.5,0-0.9-0.4-0.9-0.9c0-0.5,0.4-0.9,0.9-0.9h24.5c0.5,0,0.9,0.4,0.9,0.9
						C33.5,16.1,33.1,16.5,32.6,16.5"/>
					<path id="Fill-4" class="st0" d="M33.1,25.7H8.2c-0.5,0-0.9-0.4-0.9-0.9s0.4-0.9,0.9-0.9h24.9c0.5,0,0.9,0.4,0.9,0.9
						S33.6,25.7,33.1,25.7"/>
					<path id="Fill-5" class="st0" d="M33.1,34.9L33.1,34.9l-24.9,0c-0.5,0-0.9-0.4-0.9-0.9c0-0.5,0.4-0.9,0.9-0.9h0l24.9,0
						c0.5,0,0.9,0.4,0.9,0.9C34,34.5,33.6,34.9,33.1,34.9"/>
				</g>
			</g>
		</g>
	</g>
</g>
</svg>
